app/dist/common/images/acurx-pharmaceuticals.svg

<svg height="18" viewBox="0 0 18 18" width="18" xmlns="http://www.w3.org/2000/svg"><path d="m0 0h18v18h-18z" fill="#f0f3fa"/><path d="m11.5 7.03v1.97h1.09c.71 0 .91-.4.91-1s-.2-.97-.91-.97zm1.09 2.97h-1.09v2h-1.5v-6h2.59c1.18 0 2.41.67 2.41 2s-1.23 2-2.41 2zm-4.96 2-.45-1.3h-2.36l-.46 1.3h-1.36l2.31-6h1.39l2.3 6zm-1.63-4.6-.85 2.6h1.7l-.83-2.6h-.03z" fill="#104684"/></svg>

<!-- by TradingView --><svg width="18" height="18" viewBox="0 0 18 18" xmlns="http://www.w3.org/2000/svg"><path fill="#F0F3FA" d="M0 0h18v18H0z"/><path d="M11.5 7.03V9h1.09c.71 0 .91-.4.91-1s-.2-.97-.91-.97H11.5ZM12.59 10H11.5v2H10V6h2.59C13.77 6 15 6.67 15 8s-1.23 2-2.41 2ZM7.63 12l-.45-1.3H4.82L4.36 12H3l2.31-6H6.7L9 12H7.63ZM6 7.4 5.15 10h1.7l-.83-2.6h-.03Z" fill="#104684"/></svg>
